src/Assets/icons/wechat.svg

<svg fill="currentColor" xmlns="http://www.w3.org/2000/svg" class="svg-icon" viewBox="0 0 512 512" xml:space="preserve"><path d="M355.487 171.632c2.845 0 5.673.063 8.483.184-16.187-72.105-90.658-126.604-180.096-126.604C82.6 45.212.5 115.084.5 201.274c0 49.85 27.462 94.239 70.212 122.81l-14.289 52.762 63.336-29.323c19.959 6.342 41.56 9.815 64.115 9.815 3.011 0 6.003-.066 8.977-.188a126.866 126.866 0 0 1-6.38-39.734c0-80.386 75.819-145.784 169.016-145.784zm-109.838-49.689c14.006 0 25.36 11.354 25.36 25.36s-11.354 25.359-25.36 25.359-25.36-11.354-25.36-25.359c0-14.006 11.355-25.36 25.36-25.36zM122.75 173.964c-14.367 0-26.012-11.645-26.012-26.011 0-14.365 11.645-26.01 26.012-26.01 14.364 0 26.011 11.645 26.011 26.01 0 14.366-11.647 26.011-26.011 26.011zM511.5 317.415c0-73.332-69.848-132.777-156.013-132.777-86.162 0-156.012 59.445-156.012 132.777 0 73.331 69.85 132.776 156.012 132.776 19.191 0 37.569-2.955 54.55-8.352l53.884 24.948-12.155-44.89c36.37-24.305 59.734-62.072 59.734-104.482zm-208.571-24.343c-11.916 0-21.575-9.66-21.575-21.577 0-11.914 9.659-21.576 21.575-21.576 11.917 0 21.578 9.662 21.578 21.576 0 11.917-9.661 21.577-21.578 21.577zm104.564 1.106c-12.222 0-22.131-9.907-22.131-22.128 0-12.225 9.909-22.131 22.131-22.131s22.128 9.906 22.128 22.131c0 12.221-9.906 22.128-22.128 22.128z"/></svg>

<svg fill="currentColor"  version="1.1" xmlns="http://www.w3.org/2000/svg" xmlns:xlink="http://www.w3.org/1999/xlink" class="svg-icon" viewBox="0 0 512 512" enable-background="new 0 0 512 512" xml:space="preserve">

<g id="e6c6b53d3c8160b22dad35a0f7107cda">

<path display="inline" d="M355.487,171.632c2.845,0,5.673,0.063,8.483,0.184C347.783,99.711,273.312,45.212,183.874,45.212
		C82.6,45.212,0.5,115.084,0.5,201.274c0,49.85,27.462,94.239,70.212,122.81l-14.289,52.762l63.336-29.323
		c19.959,6.342,41.56,9.815,64.115,9.815c3.011,0,6.003-0.066,8.977-0.188c-4.155-12.637-6.38-25.965-6.38-39.734
		C186.471,237.03,262.29,171.632,355.487,171.632z M245.649,121.943c14.006,0,25.36,11.354,25.36,25.36
		c0,14.006-11.354,25.359-25.36,25.359s-25.36-11.354-25.36-25.359C220.289,133.297,231.644,121.943,245.649,121.943z
		 M122.75,173.964c-14.367,0-26.012-11.645-26.012-26.011c0-14.365,11.645-26.01,26.012-26.01c14.364,0,26.011,11.645,26.011,26.01
		C148.761,162.319,137.114,173.964,122.75,173.964z M511.5,317.415c0-73.332-69.848-132.777-156.013-132.777
		c-86.162,0-156.012,59.445-156.012,132.777c0,73.331,69.85,132.776,156.012,132.776c19.191,0,37.569-2.955,54.55-8.352
		l53.884,24.948l-12.155-44.89C488.136,397.592,511.5,359.825,511.5,317.415z M302.929,293.072c-11.916,0-21.575-9.66-21.575-21.577
		c0-11.914,9.659-21.576,21.575-21.576c11.917,0,21.578,9.662,21.578,21.576C324.507,283.412,314.846,293.072,302.929,293.072z
		 M407.493,294.178c-12.222,0-22.131-9.907-22.131-22.128c0-12.225,9.909-22.131,22.131-22.131s22.128,9.906,22.128,22.131
		C429.621,284.271,419.715,294.178,407.493,294.178z">

</path>

</g>

</svg>
